X: 24766
T: Maeve On The Mountain
R: slip jig
M: 9/8
K: Adorian
|:E2A AGA c2A|EGA AGA GGD|E2A AGA cde|1 ddd dcA cAG:|2 ddd dcd e2b||
|:a2a age dcG|A2A AGA cde|ddd dcA cAG|1 D2G GcB Ace:|2 D2G GcB A2G||

